packages/components/icon/src/assets/icons/company-profile.svg

<svg width="24" height="24" viewBox="0 0 24 24" fill="none" xmlns="http://www.w3.org/2000/svg">
<path fill-rule="evenodd" clip-rule="evenodd" d="M20.5723 3C20.7603 3 20.9158 3.06147 21.0387 3.1844C21.1617 3.30734 21.2231 3.46281 21.2231 3.65083V20.5723C21.2231 20.7603 21.1617 20.9158 21.0387 21.0387C20.9158 21.1617 20.7603 21.2231 20.5723 21.2231H12.3719V9.81198C12.3719 9.50826 12.2634 9.25155 12.0465 9.04184C11.8295 8.83213 11.5764 8.72727 11.2872 8.72727H8.59711V3.65083C8.59711 3.46281 8.66219 3.30734 8.79236 3.1844C8.92252 3.06147 9.07438 3 9.24793 3H20.5723ZM10.094 4.95248V7.16529H12.3068V4.95248H10.094ZM13.8688 4.95248V7.16529H16.0816V4.95248H13.8688ZM17.6436 4.95248V7.16529H19.8564V4.95248H17.6436ZM13.8688 8.72727V10.9401H16.0816V8.72727H13.8688ZM17.6436 8.72727V10.9401H19.8564V8.72727H17.6436ZM9.98554 10.4194C10.1736 10.4194 10.329 10.4809 10.452 10.6038C10.5749 10.7268 10.6364 10.8822 10.6364 11.0702V21.2231H3.65083C3.47727 21.2231 3.32541 21.1581 3.19525 21.0279C3.06508 20.8977 3 20.7386 3 20.5506V11.0702C3 10.8822 3.06508 10.7268 3.19525 10.6038C3.32541 10.4809 3.47727 10.4194 3.65083 10.4194H9.98554ZM13.8688 12.5888V14.8017H16.0816V12.5888H13.8688ZM17.6436 12.5888V14.8017H19.8564V12.5888H17.6436ZM13.8688 16.5589V18.75H16.0816V16.5589H13.8688ZM17.6436 16.5589V18.75H19.8564V16.5589H17.6436Z" fill="currentColor"/>
</svg>

<svg viewBox="0 0 24 24" fill="none" xmlns="http://www.w3.org/2000/svg"><path fill-rule="evenodd" clip-rule="evenodd" d="M20.572 3a.632.632 0 0 1 .651.65v16.922a.632.632 0 0 1-.65.651h-8.201V9.812c0-.304-.109-.56-.325-.77a1.058 1.058 0 0 0-.76-.315h-2.69V3.651c0-.188.065-.344.195-.467A.643.643 0 0 1 9.248 3h11.324ZM10.094 4.952v2.213h2.213V4.952h-2.213Zm3.775 0v2.213h2.213V4.952h-2.213Zm3.775 0v2.213h2.212V4.952h-2.212Zm-3.775 3.775v2.213h2.213V8.727h-2.213Zm3.775 0v2.213h2.212V8.727h-2.212ZM9.986 10.42a.632.632 0 0 1 .65.651v10.153H3.651a.624.624 0 0 1-.456-.195A.65.65 0 0 1 3 20.55v-9.48c0-.189.065-.344.195-.467a.643.643 0 0 1 .456-.185h6.335Zm3.883 2.17v2.213h2.213V12.59h-2.213Zm3.775 0v2.213h2.212V12.59h-2.212Zm-3.775 3.97v2.191h2.213V16.56h-2.213Zm3.775 0v2.191h2.212V16.56h-2.212Z" fill="currentColor"/></svg>
